!!!OTL: Lobgesang am Morgen
!!!OTL-incipit:LOBT DEN  HERRN
!!!COM: J. H. Rolle
!!!ARE: Europa, Mitteleuropa, Deutschland
!!!SCT: F0364
!!!TXL: @@DE
!!!YEM: Copyright 1995, estate of Helmut Schaffrath.
**kern	**text
*ICvox	*
*clefG2	*
*M4/4	*
*met(c)	*
*k[b-e-a-]	*
*E-:	*
=1	=1
!LO:TX:a:t=Mäßig langſam.	!
!LO:TX:a:t=P:only the highest voice encoded:problem	!
{2e-	1._Lobt
2g	den
=2	=2
1b-}	Herrn!
=3	=3
{(>4b-	lobt
2ee-/)	.
(8ff/L	den
8ddJ)	.
=4	=4
2ee-/	Herrn!
4r}	.
{4b-/	Die
=5	=5
(>4.cc/	Mor-
8dd/	.
4ee-/)	.
8ddqq	.
4cc/	-gen-
=6	=6
4cc/	-ſon-
4b-/	-ne
[2gg	weckt
=7	=7
4gg]}	.
{(8ffL	die
8ee-J)	.
(8dd/L	Flur
8ccJ)	.
(8b-/L	aus
8a-J)	.
=8	=8
(>4.g	ih-
8cc/)	.
(>4b-/	-rer
4a-/)	.
=9	=9
2b-/	Ruh'
2r}	.
=10	=10
{2b-/	und
(>4.dd/	der
8ee-/)	.
=11	=11
4ff/	gan-
4cc/	-ʒen
4cc/	Schöpfung
4dd/	.
=12	=12
4ee-/	Wonne
4b-/	.
[>2ee-	ſtrömt
=13	=13
4ee-]}	.
{4dd/	ver-
4aa-	-jüngt
4gg	uns
=14	=14
(>4.cc/	wie-
8ff/)	.
(>4ee-/	-der
4dd/)	.
=15	=15
2ee-/	ʒu!
2r}	.
==	==
!!!AGN: Jugend - Lied, Tageszeiten, Morgen, religioes, Lob - Lied
!!!ONB: ESAC (Essen Associative Code) Database: FINK
!!!AMT: simple quadruple
!!!AIN: vox
!!!EED: Helmut Schaffrath
!!!EEV: 1.0
!!Text: J. S. Patzke
!!!RDF**kern: > = above
!!!GTL: Erbauungslieder
!!!source: Musikalischer Hausschatz der Deutschen. Eine Sammlung von über 1000 Liedern und Gesängen mit Singstimmen und Klavierbegleitung. Leipzig, Litterarisches Verlags-Haus.
!!!page: 215
!!!URL-scan: https://www.digitale-sammlungen.de/en/view/bsb11144622?page=643
!!!ENC: Anna Maria Matuszewska
!!!EEV: 2024/08/08
*-	*-
